src/next/cmd/32/hu/underlinedouble.svg

<svg height="32" viewBox="0 0 8.4666665 8.466667" width="32" xmlns="http://www.w3.org/2000/svg" xmlns:xlink="http://www.w3.org/1999/xlink"><linearGradient id="a" gradientUnits="userSpaceOnUse" x1="15.395049" x2="16.421385" y1="26.048676" y2="2.442928"><stop offset="0" stop-color="#555"/><stop offset="1"/></linearGradient><linearGradient id="b" gradientUnits="userSpaceOnUse" x1="9.983846" x2="21.177059" y1="9.353952" y2="19.542652"><stop offset="0" stop-color="#3b3e22"/><stop offset="1" stop-color="#454545" stop-opacity="0"/></linearGradient><g transform="matrix(.25 0 0 .25 0 -.000002)"><rect fill="#0e0e0e" height="2.116674" rx=".472075" ry=".9247" width="27.516666" x="3.175" y="27.516672"/><rect fill="#0e0e0e" height="2.116674" rx=".472075" ry=".9247" width="27.516666" x="3.175" y="31.750011"/><path d="m28.832363 25.155752v.682514h-9.160055v-.682514q1.436872-.03592 1.975699-.287374.538826-.251452.538826-.933966 0-.862123-.682514-2.40676l-1.472793-3.448491h-9.411507l-1.6524021 4.202849q-.2873742.754357-.2873742 1.400949 0 1.472793 2.4426813 1.472793v.682514h-7.1125132v-.682514q1.329106-.071843 2.0475417-1.005809.7543574-.969889 2.4067595-4.885363l7.471731-17.6375957h.718436l8.944524 20.4035727q.862122 1.975698 1.436871 2.514525.574749.538827 1.796089.61067zm-17.601674-8.549384h8.297932l-4.166927-9.8784904z" fill="url(#a)" stroke-width=".853387" transform="scale(1.0311756 .96976693)"/><path d="m16.610315 1.8283121-6.6264687 14.7091799a18.655369 8.1437855 0 0 0 5.3190547.342098 18.655369 8.1437855 0 0 0 8.313705-.857312l-6.615617-14.1939659zm-.762744 4.44469a.26609959.2502528 0 0 1 .239262.153996l4.295862 9.5802929a.26609959.2502528 0 0 1 -.245463.346749h-8.555551a.26609959.2502528 0 0 1 -.245979-.346749l4.259688-9.5802929a.26609959.2502528 0 0 1 .225826-.153479.26609959.2502528 0 0 1 .02636-.000517z" fill="url(#b)"/></g></svg>

<?xml version="1.0" encoding="UTF-8" standalone="no"?>
<svg
   xmlns:dc="http://purl.org/dc/elements/1.1/"
   xmlns:cc="http://creativecommons.org/ns#"
   xmlns:rdf="http://www.w3.org/1999/02/22-rdf-syntax-ns#"
   xmlns:svg="http://www.w3.org/2000/svg"
   xmlns="http://www.w3.org/2000/svg"
   xmlns:xlink="http://www.w3.org/1999/xlink"
   xmlns:sodipodi="http://sodipodi.sourceforge.net/DTD/sodipodi-0.dtd"
   xmlns:inkscape="http://www.inkscape.org/namespaces/inkscape"
   height="32"
   viewBox="0 0 8.4666665 8.466667"
   width="32"
   version="1.1"
   id="svg22"
   sodipodi:docname="underlinedouble.svg"
   inkscape:version="0.92.4 (unknown)"
   inkscape:export-filename="/home/rizmut/Dokumen/Rizmut/Github/libreoffice-style-karasa-jaga/build/next/cmd/32/hu/underlinedouble.png"
   inkscape:export-xdpi="96"
   inkscape:export-ydpi="96">
  <metadata
     id="metadata28">
    <rdf:RDF>
      <cc:Work
         rdf:about="">
        <dc:format>image/svg+xml</dc:format>
        <dc:type
           rdf:resource="http://purl.org/dc/dcmitype/StillImage" />
        <dc:title></dc:title>
      </cc:Work>
    </rdf:RDF>
  </metadata>
  <defs
     id="defs26">
    <linearGradient
       inkscape:collect="always"
       xlink:href="#b"
       id="linearGradient45"
       gradientUnits="userSpaceOnUse"
       x1="15.395049"
       y1="26.048676"
       x2="16.421385"
       y2="2.4429281" />
    <linearGradient
       inkscape:collect="always"
       xlink:href="#b"
       id="linearGradient47"
       gradientUnits="userSpaceOnUse"
       x1="15.395049"
       y1="26.048676"
       x2="16.421385"
       y2="2.4429281" />
  </defs>
  <sodipodi:namedview
     pagecolor="#ffffff"
     bordercolor="#666666"
     borderopacity="1"
     objecttolerance="10"
     gridtolerance="10"
     guidetolerance="10"
     inkscape:pageopacity="0"
     inkscape:pageshadow="2"
     inkscape:window-width="1366"
     inkscape:window-height="714"
     id="namedview24"
     showgrid="true"
     inkscape:zoom="3.6875"
     inkscape:cx="7.4070386"
     inkscape:cy="12.811896"
     inkscape:window-x="0"
     inkscape:window-y="28"
     inkscape:window-maximized="1"
     inkscape:current-layer="svg22">
    <inkscape:grid
       type="xygrid"
       id="grid33" />
  </sodipodi:namedview>
  <linearGradient
     id="a"
     gradientUnits="userSpaceOnUse"
     x1="9.9838457"
     x2="21.177059"
     y1="9.3539524"
     y2="19.542652">
    <stop
       offset="0"
       stop-color="#3b3e22"
       id="stop2" />
    <stop
       offset="1"
       stop-color="#454545"
       stop-opacity="0"
       id="stop4" />
  </linearGradient>
  <linearGradient
     id="b"
     gradientUnits="userSpaceOnUse"
     x1="15.395049"
     x2="16.421385"
     y1="26.048676"
     y2="2.4429281">
    <stop
       offset="0"
       stop-color="#555"
       id="stop7" />
    <stop
       offset="1"
       id="stop9" />
  </linearGradient>
  <g
     id="g43"
     transform="matrix(0.25,0,0,0.25,-2.1264649e-7,-2.2988091e-6)">
    <rect
       id="rect12"
       y="27.516672"
       x="3.175"
       width="27.516666"
       ry="0.92470002"
       rx="0.47207499"
       height="2.1166739"
       style="fill:#0e0e0e" />
    <rect
       id="rect14"
       y="31.750011"
       x="3.175"
       width="27.516666"
       ry="0.92470002"
       rx="0.47207499"
       height="2.1166739"
       style="fill:#0e0e0e" />
    <g
       id="text18"
       style="font-size:34.13547516px;font-family:sans-serif;letter-spacing:0;word-spacing:0;fill:url(#linearGradient47);stroke-width:0.853387"
       transform="scale(1.0311756,0.96976693)"
       aria-label="A">
      <path
         id="path30"
         style="font-size:35.92178345px;font-family:FreeSerif;fill:url(#linearGradient45);stroke-width:0.853387"
         d="m 28.832363,25.155752 v 0.682514 h -9.160055 v -0.682514 q 1.436872,-0.03592 1.975699,-0.287374 0.538826,-0.251452 0.538826,-0.933966 0,-0.862123 -0.682514,-2.40676 L 20.031526,18.079161 H 10.620019 L 8.9676169,22.28201 q -0.2873742,0.754357 -0.2873742,1.400949 0,1.472793 2.4426813,1.472793 v 0.682514 H 4.0104108 V 25.155752 Q 5.3395168,25.083909 6.0579525,24.149943 6.8123099,23.180054 8.464712,19.26458 L 15.936443,1.6269843 h 0.718436 l 8.944524,20.4035727 q 0.862122,1.975698 1.436871,2.514525 0.574749,0.538827 1.796089,0.61067 z M 11.230689,16.606368 h 8.297932 L 15.361694,6.7278776 Z"
         inkscape:connector-curvature="0" />
    </g>
    <path
       id="path20"
       d="M 16.610315,1.8283121 9.9838463,16.537492 a 18.655369,8.1437855 0 0 0 5.3190547,0.342098 18.655369,8.1437855 0 0 0 8.313705,-0.857312 L 17.000989,1.8283121 Z m -0.762744,4.44469 a 0.26609959,0.2502528 0 0 1 0.239262,0.153996 l 4.295862,9.5802929 A 0.26609959,0.2502528 0 0 1 20.137232,16.35404 H 11.581681 A 0.26609959,0.2502528 0 0 1 11.335702,16.007291 L 15.59539,6.4269981 a 0.26609959,0.2502528 0 0 1 0.225826,-0.153479 0.26609959,0.2502528 0 0 1 0.02636,-5.17e-4 z"
       style="fill:url(#a)"
       inkscape:connector-curvature="0" />
  </g>
</svg>
